X:1
T:Title
%%score 1 2 { 3 | ( 4 5 ) }
L:1/8
Q:1/4=120
M:2/4
K:G
V:1 treble nm="Voice\n(verse 1)"
V:2 treble nm="Voice\n(verse 2)"
V:3 treble nm="Piano"
V:4 bass 
V:5 bass 
V:1
"^Allegretto grazioso" z |:SSS z4 | z4 | z4 | z2 z!p! D | G G/ G/ A A/ A/ | B2 z B/ B/ | A G F E | %8
 F2 z F |!<(! E F G A | B B B c!<)! |!f! d c B A | B2 z!mf! B | c A c A | B G B G | A F A F | %16
 G G G!mf! G | A A/ A/ A B | c c/ c/ c d | e c A F | G2 z2 |SSS z4 | z4 :| z4 | !fermata!z2 |] %25
V:2
 z |: z4 | z4 | z4 | z4 | z4 | z4 | z4 | z4 | z4 | z4 | z4 | z2 z!mf! G | A F A F | G D G D | %15
 F D F D | G G G!mf! G | F F/ F/ F G | A A/ A/ A B | c A F D | G2 z2 | z4 | z4 :| z4 | %24
 !fermata!z2 |] %25
V:3
 z |: z!p! [B,DG] z [CFA] | z [B,DG] z [A,DF] | z [B,DG] z [CFA] | z [B,DG] z [A,DF] | %5
 z [B,DG] z [CFA] | z [B,DG] z [B,DG] | z [^CGA] z [CGA] | z [DFA] z [DFA] | z [CEG] z [CDF] | %10
 z [B,DG] z [A,DF] |!f! z [A,CF] z [A,CF] | z [B,DG] z!mf! [B,DG] | z [CFA] z [CFA] | %14
 z [B,DG] z [B,DG] | z [CFA] z [CFA] | z [B,DG] z!mf! [B,DG] | z [DFA] z [DFA] | z [CFA] z [CFA] | %19
 z [CFA] z [CFA] | z [B,DG] z [B,DG] | z [A,CF] z [A,CF] | z [B,DG] z [B,DG] :| z [A,CF] z [A,CF] | %24
 !fermata![B,DG]2 |] %25
V:4
!pp! D, |: G, z D, z | G, z D, z | G, z D, z | G, z D, z | G, z D, z | G, z G,, z | A,, z A, z | %8
 D, z D,, z | A,, z D,, z | G,, z D,, z | A,, z D, z | G, z G,, z | D,, z D, z | G,, z D, z | %15
 D,, z D, z | G,, z D, z | D, z D,, z | D, z D,, z | A,, z D, z | G, z G,, z | D,, z D, z | %22
 G, z D, z :| D,, z D, z | !fermata!G,2 |] %25
V:5
 x |: x4 | x4 | x4 | x4 | x4 | x4 | x4 | x4 | x4 | x4 | x4 | x4 | x4 | x4 | x4 | x4 | x4 | x4 | %19
 x4 | x4 | x4 | x4 :| x4 | G,,2 |] %25

